!!!OTL: Shibeijiu
!!!ARE: Asia, China,ÿGansu, Lingxia
!! I, 138
!!!SCT: C1420
!!!YEM: Copyright 1995, estate of Helmut Schaffrath.
**kern
*ICvox
*Ivox
*M2/4
*k[f#c#g#]
*A:
{16ff#
8.ff#
16ff#
16aa
16ff#
16ee
=1
16ee
8.cc#
8cc#
8ee
=2
8ff#
8r
24aa
24bb
24aa
8bb
=3
8.ff#
16aa
8ff#
8ee
=4
8ff#
16ff#
16ee
[4ff#
=5
4ff#]}
{8ee
8ff#
=6
8ff#
8ff#
8aa
8ff#
=7
8ee
16ff#
16aa
16ff#
16ee
16cc#
16r
=8
16ee
16ff#
16ee
16cc#
8b
16b
16a
=9
4.b
8r}
=10
{8ee
4cc#
8ee
=11
8ff#
8ff#
16ff#
16aa
16ff#
16ee
=12
8ff#
8ff#
16cc#
16r
8ff#
=13
8cc#
16cc#
16b}
{8a
8b
=14
8cc#
8r
16ee
16ff#
16ee
16cc#
=15
8b
8b
8b
8a
=16
8f#
8a
8f#
8e
=17
[2f#
=18
4f#]}
{8a
8b
=19
4cc#
16ee
16ff#
16ee
16cc#
=20
8b
8b
8b
8a
=21
8f#
8a
8f#
8e
=22
2f#}
==
!!!AGN: Xiaodiao, Fengsuge, Jiuqu
!!!ONB: ESAC (Essen Associative Code) Database: HUANG
!!!AMT: simple duple
!!!AIN: vox
!!!EED: Helmut Schaffrath
!!!EEV: 1.0
*-
!!!ONB: Tied note syntax fixed by Craig Sapp, 2004/05/03/
